X: 109
T: Bonny Kitty
%R: reel
Z: 2014 John Chambers <jc:trillian.mit.edu>
B: Thompson "Twenty four Country Dances for the Year 1762" p.55 #1
F: http://www.vwml.org/browse/browse-collections-dance-tune-books/browse-thompsons1762# 2014-8-11
M: 2/4
L: 1/16
K: G
[D2G,2] |\
[G2G,2][G2-G,2] GABc | [d2D2][d2-D2] dgfe |\
dedc BcBA | G2G2G2 :|\
|: g2- |\
gfed cBAG | [c2E2][c2E2][c2E2]a2- |
agfe dcBA | [B2G2][B2G2][B2G2]g2- |\
gfed cBAG | [c2E2][c2E2][e2c2]g2 |\
e2dc BcAB | G2G2G2 :|
% - - - - - - - - - - - - - - - - - - - - - - - - -
%%begintext align
%% Foot it 4 change sides and clap Hands 3 times .|. the
%% same back again .|: cross over two Cu: lead to the
%% top cast off and clap Hands 3 times :|. Hands round
%% four at bottom right & left at top & clap hands 3 times :|:
%%endtext
% - - - - - - - - - - - - - - - - - - - - - - - - -
